X: 313
M: 6/4
L: 1/4
K: Bb
V: 1
|: F |\
.g(ec) .f(dB) | .e(cB) A>GF | Ged cBA | BFD B,2 |]
V: 2 clef=bass middle=d
z |\
|: z |\
d3 B3 | e3 z3 | =e3 c3 | f3 z3 |\
e3 d3 | e3 f2d | e3 f3 | B2B B2 |]

